svgs/thin/bacteria.svg

<svg xmlns="http://www.w3.org/2000/svg" viewBox="0 0 640 512"><!--! Font Awesome Pro 6.3.0 by @fontawesome - https://fontawesome.com License - https://fontawesome.com/license (Commercial License) Copyright 2023 Fonticons, Inc. --><path d="M128 191.1c-17.67 0-32 14.33-32 32C96 241.7 110.3 256 128 256s32-14.33 32-32C160 206.3 145.7 191.1 128 191.1zM127.1 239.1c-8.822 0-16-7.177-16-15.1S119.2 208 128 208S144 215.2 144 224S136.8 239.1 127.1 239.1zM208 120c-13.22 0-24 10.77-24 24S194.8 168 208 168S232 157.2 232 144S221.2 120 208 120zM208 152c-4.406 0-8-3.594-8-8S203.6 136 208 136S216 139.6 216 144S212.4 152 208 152zM632.7 250.7L607.4 248.5c.0684-.7988 .2266-1.568 .2891-2.369c1.9-24.97-7.984-47.7-24.63-63.64L595.3 166c2.664-3.532 1.912-8.547-1.631-11.19c-3.543-2.594-8.557-1.891-11.22 1.656l-12.07 16.18c-10.73-6.762-23.03-11.38-36.6-12.41c-12.54-.9629-24.49 1.266-35.44 5.578l-8.672-20.55c-1.691-4.078-6.457-5.953-10.5-4.281c-4.107 1.719-6.02 6.406-4.295 10.47l9.174 21.74c-16.34 10.61-28.7 26.84-33.87 46.39L424.4 216.1c-4.578-.7031-8.434 2.484-9.061 6.844c-.5957 4.375 2.477 8.406 6.865 9l25.14 3.408c-2.264 24.31-13.62 45.57-30.61 60.86l-16.14-20.75c-2.727-3.5-7.773-4.109-11.25-1.422c-3.51 2.719-4.137 7.734-1.41 11.23l16.02 20.59c-12.61 7.912-27.13 13.16-42.99 14.38c-5.398 .4121-10.61 1.379-15.63 2.785l-11.31-24.66c-1.848-4.029-6.738-5.764-10.62-3.951C319.4 296.3 317.6 301 319.5 305l10.99 23.95c-21.14 10.88-36.54 30.73-41.61 54.18L264.8 380.7c-4.262-.4062-8.338 2.734-8.807 7.125c-.4395 4.391 2.758 8.328 7.146 8.781l23.81 2.471c-.0039 .2949-.082 .5703-.082 .8652c0 2.076 .0781 4.15 .2363 6.227c1.734 22.48 12.69 41.97 28.81 55.32l-15.16 20.35c-2.633 3.545-1.881 8.561 1.662 11.19c3.523 2.598 8.541 1.949 11.25-1.656l15.62-20.96c13.05 6.986 28.12 10.6 43.99 9.383c7.223-.5527 14.32-1.475 21.35-2.598l5.029 28.23c.2441 1.379 2.496 7.617 9.309 6.484c4.357-.7656 7.273-4.922 6.49-9.281l-5.096-28.61c21.16-4.742 41.23-12.03 59.95-21.56l14.26 25.88c1.01 1.846 5.355 6.189 10.88 3.156c3.889-2.125 5.299-7 3.166-10.88l-14.21-25.78c18.43-10.91 35.36-23.99 50.33-39.04l21.52 19.52c3.5 3.168 8.584 2.494 11.32-.5313c2.979-3.264 2.758-8.326-.5332-11.31l-21.46-19.48c14.02-15.99 25.97-33.79 35.62-53.03l25.69 11.11c4.158 1.758 8.816-.1562 10.56-4.156c1.754-4.062-.0957-8.766-4.17-10.53l-25.37-10.98c8.275-19.5 14.24-40.24 17.48-61.98c0 0 26.33 2.229 26.55 2.229c4.139 0 7.648-3.156 7.994-7.328C640.3 254.9 637.1 251 632.7 250.7zM372.1 463.8c-42.3 3.236-69.12-31.94-69.12-63.89c0-33.19 26.03-61.17 59.28-63.71c54.56-4.207 97.21-46.73 101.4-101.1c1.865-24.12 23.91-62.32 68.94-58.89c35.25 2.688 61.75 33.52 59.08 68.71C582.6 362.7 490.2 454.7 372.1 463.8zM236 206.1c12.61-7.912 27.13-13.16 42.99-14.38c5.398-.4121 10.61-1.379 15.63-2.785l11.31 24.66c1.848 4.029 6.738 5.764 10.62 3.951c4.045-1.844 5.83-6.592 3.982-10.61L309.6 183c21.14-10.88 36.54-30.73 41.61-54.18l23.99 2.488c4.262 .4062 8.338-2.734 8.807-7.125c.4395-4.391-2.758-8.328-7.146-8.781l-23.81-2.471c.0039-.2949 .082-.5703 .082-.8652c0-2.076-.0781-4.15-.2363-6.227c-1.734-22.48-12.69-41.97-28.81-55.32l15.16-20.35c2.633-3.545 1.881-8.561-1.662-11.19c-3.523-2.598-8.541-1.949-11.25 1.656L310.7 41.63C297.6 34.65 282.6 31.03 266.7 32.25C259.5 32.8 252.4 33.72 245.3 34.85L240.3 6.621C240.1 5.242 237.8-.9961 230.1 .1367C226.6 .9023 223.7 5.059 224.5 9.418l5.096 28.61C208.4 42.77 188.4 50.05 169.6 59.59L155.4 33.71C154.4 31.87 150 27.52 144.5 30.56c-3.889 2.125-5.299 7-3.166 10.88l14.21 25.78c-18.43 10.91-35.36 23.99-50.33 39.04L83.69 86.73c-3.5-3.168-8.584-2.494-11.32 .5313C69.4 90.52 69.62 95.59 72.91 98.57l21.46 19.48C80.36 134 68.4 151.8 58.76 171.1l-25.69-11.11C28.91 158.2 24.25 160.1 22.5 164.1C20.75 168.2 22.6 172.9 26.67 174.6l25.37 10.98c-8.275 19.5-14.24 40.24-17.48 61.98c0 0-26.33-2.229-26.55-2.229c-4.139 0-7.648 3.156-7.994 7.328c-.375 4.391 2.885 8.266 7.305 8.641L32.63 263.5C32.56 264.3 32.4 265.1 32.34 265.9c-1.9 24.97 7.984 47.7 24.63 63.64L44.67 346c-2.664 3.531-1.912 8.547 1.631 11.19c3.543 2.594 8.557 1.891 11.22-1.656l12.07-16.18c10.73 6.762 23.03 11.38 36.6 12.41c12.54 .9629 24.49-1.266 35.44-5.578l8.672 20.55c1.691 4.078 6.457 5.953 10.5 4.281c4.107-1.719 6.02-6.406 4.295-10.47l-9.174-21.74c16.34-10.61 28.7-26.84 33.87-46.39L215.6 295.9c4.578 .7031 8.434-2.484 9.061-6.844c.5957-4.375-2.477-8.406-6.865-9L192.6 276.7c2.264-24.31 13.62-45.57 30.61-60.86l16.14 20.75c2.727 3.5 7.773 4.109 11.25 1.422c3.51-2.719 4.137-7.734 1.41-11.23L236 206.1zM176.4 276.9c-1.865 24.12-23.91 62.32-68.94 58.89c-35.25-2.688-61.75-33.52-59.08-68.71c9.084-117.8 101.4-209.8 219.6-218.9c42.3-3.236 69.12 31.94 69.12 63.89c0 33.19-26.03 61.17-59.28 63.71C223.2 180 180.5 222.5 176.4 276.9zM416 352c-17.67 0-32 14.33-32 32c0 17.67 14.33 32 32 32s32-14.33 32-32C448 366.3 433.7 352 416 352zM415.1 400c-8.822 0-16-7.177-16-15.1S407.2 368 416 368s16 7.178 16 16S424.8 400 415.1 400z"/></svg>

<svg xmlns="http://www.w3.org/2000/svg" viewBox="0 0 640 512"><!-- Font Awesome Pro 6.0.0-alpha2 by @fontawesome - https://fontawesome.com License - https://fontawesome.com/license (Commercial License) --><path d="M128 192C110.326 192 96 206.326 96 224C96 241.672 110.326 256 128 256S160 241.672 160 224C160 206.326 145.674 192 128 192ZM128 240C119.178 240 112 232.822 112 224S119.178 208 128 208S144 215.178 144 224S136.822 240 128 240ZM208 120C194.781 120 184 130.766 184 144S194.781 168 208 168S232 157.234 232 144S221.219 120 208 120ZM208 152C203.594 152 200 148.406 200 144S203.594 136 208 136S216 139.594 216 144S212.406 152 208 152ZM632.666 250.652L607.375 248.502C607.443 247.703 607.602 246.934 607.664 246.133C609.565 221.158 599.68 198.43 583.029 182.494L595.334 166C597.998 162.469 597.246 157.453 593.703 154.813C590.16 152.219 585.147 152.922 582.481 156.469L570.41 172.65C559.678 165.889 547.377 161.275 533.811 160.24C521.272 159.277 509.324 161.506 498.367 165.818L489.695 145.266C488.004 141.188 483.238 139.313 479.195 140.984C475.088 142.703 473.176 147.391 474.9 151.453L484.074 173.195C467.738 183.807 455.373 200.037 450.207 219.59L424.443 216.096C419.865 215.393 416.01 218.58 415.383 222.939C414.787 227.314 417.859 231.346 422.248 231.939L447.391 235.348C445.127 259.662 433.774 280.92 416.783 296.203L400.641 275.449C397.914 271.949 392.867 271.34 389.387 274.027C385.877 276.746 385.25 281.762 387.977 285.262L403.994 305.855C391.385 313.768 376.865 319.018 361.004 320.24C355.606 320.652 350.391 321.619 345.371 323.025L334.061 298.369C332.213 294.34 327.322 292.605 323.436 294.418C319.391 296.262 317.606 301.01 319.453 305.025L330.441 328.977C309.299 339.855 293.904 359.711 288.836 383.152L264.848 380.664C260.586 380.258 256.51 383.398 256.041 387.789C255.602 392.18 258.799 396.117 263.188 396.57L286.996 399.041C286.992 399.336 286.914 399.611 286.914 399.906C286.914 401.982 286.992 404.057 287.15 406.133C288.885 428.609 299.844 448.105 315.961 461.451L300.803 481.803C298.17 485.348 298.922 490.363 302.465 492.988C305.988 495.586 311.006 494.938 313.717 491.332L329.332 470.367C342.385 477.354 357.449 480.969 373.318 479.75C380.541 479.197 387.643 478.275 394.672 477.152L399.701 505.379C399.945 506.758 402.197 512.996 409.01 511.863C413.367 511.098 416.283 506.941 415.5 502.582L410.404 473.971C431.563 469.229 451.633 461.945 470.358 452.406L484.617 478.287C485.627 480.133 489.973 484.477 495.494 481.443C499.383 479.318 500.793 474.443 498.66 470.568L484.455 444.787C502.883 433.877 519.811 420.795 534.789 405.748L556.307 425.271C559.807 428.439 564.891 427.766 567.623 424.74C570.602 421.477 570.381 416.414 567.09 413.43L545.627 393.953C559.643 377.959 571.596 360.164 581.244 340.928L606.932 352.041C611.09 353.799 615.748 351.885 617.496 347.885C619.25 343.822 617.4 339.119 613.326 337.354L587.953 326.377C596.229 306.877 602.191 286.141 605.43 264.393L631.287 266.59C631.539 266.605 631.758 266.621 631.977 266.621C636.115 266.621 639.625 263.465 639.971 259.293C640.346 254.902 637.086 251.027 632.666 250.652ZM372.086 463.797C329.781 467.033 302.963 431.855 302.963 399.904C302.963 366.715 328.996 338.73 362.242 336.191C416.807 331.984 459.453 289.463 463.643 235.084C465.508 210.959 487.555 172.76 532.586 176.191C567.84 178.879 594.34 209.713 591.662 244.904C582.578 362.684 490.232 454.742 372.086 463.797ZM236.006 206.145C248.615 198.232 263.135 192.982 278.996 191.76C284.395 191.348 289.609 190.381 294.629 188.975L305.94 213.631C307.787 217.66 312.678 219.395 316.565 217.582C320.609 215.738 322.395 210.99 320.547 206.975L309.559 183.023C330.701 172.145 346.096 152.289 351.164 128.848L375.152 131.336C379.414 131.742 383.49 128.602 383.959 124.211C384.399 119.82 381.201 115.883 376.813 115.43L353.004 112.959C353.008 112.664 353.086 112.389 353.086 112.094C353.086 110.018 353.008 107.943 352.85 105.867C351.115 83.391 340.156 63.895 324.039 50.549L339.197 30.197C341.83 26.652 341.078 21.637 337.535 19.012C334.012 16.414 328.994 17.062 326.283 20.668L310.668 41.633C297.615 34.646 282.551 31.031 266.682 32.25C259.459 32.803 252.357 33.725 245.328 34.848L240.299 6.621C240.055 5.242 237.803 -0.996 230.99 0.137C226.633 0.902 223.717 5.059 224.5 9.418L229.596 38.029C208.438 42.771 188.367 50.055 169.643 59.594L155.383 33.713C154.373 31.867 150.027 27.523 144.506 30.557C140.617 32.682 139.207 37.557 141.34 41.432L155.545 67.213C137.117 78.123 120.19 91.205 105.211 106.252L83.693 86.729C80.193 83.561 75.109 84.234 72.377 87.26C69.399 90.523 69.619 95.586 72.91 98.57L94.373 118.047C80.357 134.041 68.404 151.836 58.756 171.072L33.068 159.959C28.91 158.201 24.252 160.115 22.504 164.115C20.75 168.178 22.6 172.881 26.674 174.646L52.047 185.623C43.772 205.123 37.809 225.859 34.57 247.607L8.713 245.41C8.461 245.395 8.242 245.379 8.024 245.379C3.885 245.379 0.375 248.535 0.029 252.707C-0.346 257.098 2.914 260.973 7.334 261.348L32.625 263.498C32.557 264.297 32.399 265.066 32.336 265.867C30.436 290.842 40.32 313.57 56.971 329.506L44.666 346C42.002 349.531 42.754 354.547 46.297 357.188C49.84 359.781 54.854 359.078 57.52 355.531L69.59 339.35C80.322 346.111 92.623 350.725 106.19 351.76C118.729 352.723 130.676 350.494 141.633 346.182L150.305 366.734C151.996 370.812 156.762 372.688 160.805 371.016C164.912 369.297 166.824 364.609 165.1 360.547L155.926 338.805C172.262 328.193 184.627 311.963 189.793 292.41L215.557 295.904C220.135 296.607 223.99 293.42 224.617 289.061C225.213 284.686 222.141 280.654 217.752 280.061L192.609 276.652C194.873 252.338 206.227 231.08 223.217 215.797L239.359 236.551C242.086 240.051 247.133 240.66 250.613 237.973C254.123 235.254 254.75 230.238 252.024 226.738L236.006 206.145ZM176.357 276.916C174.492 301.041 152.445 339.24 107.414 335.809C72.16 333.121 45.66 302.287 48.338 267.096C57.422 149.316 149.768 57.258 267.914 48.203C310.219 44.967 337.037 80.145 337.037 112.096C337.037 145.285 311.004 173.27 277.758 175.809C223.193 180.016 180.547 222.537 176.357 276.916ZM416 352C398.326 352 384 366.326 384 384C384 401.672 398.326 416 416 416S448 401.672 448 384C448 366.326 433.674 352 416 352ZM416 400C407.178 400 400 392.822 400 384S407.178 368 416 368S432 375.178 432 384S424.822 400 416 400Z"/></svg>
